X:2
T:An Buachaill Dreoite
Z: id:dc-hornpipe-2
M:C|
L:1/8
K:G Major
GF|DGGB d2GB|d2GF Gc (3AGF|DGGB d2GB|dBcA F2GF|!
DGGB d2GF|DGGF G2Ge|fgaf gbag|fdcA G2:|!
GA|B2BG c2cA|d2GF G2GA|B2BG c2cA|d2DE F2GA|!
B2BG c2cA|d^cde f2 (3def|g2gf gbag|fdcA G2:|!

